X: 23984
T: Locomotive, The
R: hornpipe
M: 4/4
K: Dmajor
|:de|fedc dAFA|fedc dAFA|Bdgf edcd|(3efd (3cdB Acde|
fedc dAFA|fedc Bdgb|ba^ga =geag|f2d2 d2:|
|:cd|edcd eAaA|fede fAaA|gfga bagf|(3efd (3cdB (3ABG (3FGE|
DFAd fafd|gfga b2ag|(3fag (3fed (3cba (3gfe|f2d2 d2:|

